X: 22
P: No. XXII.
M: 3/4
L: 1/4
K: G
V: 1
|:\
|:\
e/f/gg | Tg2a | ecc | {d}Tc3 |
f/g/aa | a2b | fdd | Td3 |\
e/f/gg | Tg2a | ecc | Td2c |\
V: 2 clef=bass middle=d
|:\
|:\
cc'c' | c'/d'/e'z | c'cc | c3 |
dd'd' | d'/e'/f'z | d'dd | d3 |\
ccc | c/d/ez | cec | BGc |\
gGG | dfd | gGG | G3 :|

